X:309
T: Der Schlemmer
N: A0358
O: Europa, Mitteleuropa, Deutschland
N: Forster II. 1540. No. 57.
R: Romanze, Ballade, Lied
M: 4/2
L: 1/2
K: G
G | _BBAG | d2c
c | dc2_BA2 | G2z
G | _BBAG | d2c
c | dc2_BA2 | G2z
_B | A2=FGE2 | D2z
_B | A2Gc2_B | A2z
G | _BBAG | d2c
c | d2c_BA2 | G2z

@@@ Tune index: 309
